X:251
T:score52
L:1/16
Q:1/4=96
M:2/4
I:linebreak $
K:F
 (!>!fgf)F (!>!cdc)F | (!>!ded)F (!>!efe)F | (!>!fgf)F (!>!gag)F | !>!a8 |$ (c'd'c')f (f'g'f')f | %5
 (bc'b)f (f'g'f')f | (c'd'c')g (gag)c | (c2^c2 d2A2) |] %8
